Simply-Orange-Circles/scalable/apps/preferences-system-brightness-lock.svg

<svg xmlns="http://www.w3.org/2000/svg" width="48" height="48" viewBox="0 0 12.7 12.7"><path d="M6.34.07a6.29 6.29 0 0 0-6.29 6.3 6.29 6.29 0 0 0 6.3 6.28 6.29 6.29 0 0 0 6.28-6.29A6.29 6.29 0 0 0 6.34.07zM6.32 1l.01.01a5.4 5.4 0 0 1 5.4 5.4 5.4 5.4 0 0 1-5.4 5.41 5.4 5.4 0 0 1-5.41-5.4A5.4 5.4 0 0 1 6.32 1zm-.12.85a.15.15 0 0 0-.15.15v.9c0 .08.07.15.15.15h.3c.08 0 .15-.07.15-.15V2a.15.15 0 0 0-.15-.15h-.3zM3.38 3.02a.15.15 0 0 0-.1.04l-.22.22a.15.15 0 0 0 0 .2l.64.64a.15.15 0 0 0 .21 0l.21-.2a.15.15 0 0 0 0-.22l-.63-.64a.15.15 0 0 0-.1-.04zm5.94 0a.15.15 0 0 0-.1.04l-.64.64a.15.15 0 0 0 0 .21l.2.21a.15.15 0 0 0 .22 0l.64-.63a.15.15 0 0 0 0-.21l-.22-.22a.15.15 0 0 0-.1-.04zM6.35 4.25a2.1 2.1 0 0 0-.01 0 2.1 2.1 0 0 0-.01 0 2.1 2.1 0 0 0-.61.1 2.1 2.1 0 0 0-.2.07 2.1 2.1 0 0 0-.01 0 2.1 2.1 0 0 0-.17.1 2.1 2.1 0 0 0-.05.02 2.1 2.1 0 0 0-.45.35 2.1 2.1 0 0 0-.04.05 2.1 2.1 0 0 0-.1.11 2.1 2.1 0 0 0-.02.03 2.1 2.1 0 0 0-.1.14 2.1 2.1 0 0 0-.02.04 2.1 2.1 0 0 0-.09.15 2.1 2.1 0 0 0 0 .01 2.1 2.1 0 0 0-.08.18 2.1 2.1 0 0 0-.02.06 2.1 2.1 0 0 0-.04.14 2.1 2.1 0 0 0-.02.08 2.1 2.1 0 0 0-.03.12 2.1 2.1 0 0 0 0 .08 2.1 2.1 0 0 0-.02.13 2.1 2.1 0 0 0 0 .14 2.1 2.1 0 0 0 .03.42 2.1 2.1 0 0 0 .6 1.09 2.1 2.1 0 0 0 .33.26 2.1 2.1 0 0 0 .18.1 2.1 2.1 0 0 0 .95.23 2.1 2.1 0 0 0 2.1-2.1 2.1 2.1 0 0 0-2.1-2.1zm0 .53a1.57 1.57 0 0 1 1.57 1.57 1.57 1.57 0 0 1-1.57 1.57 1.57 1.57 0 0 1-.01 0V4.78a1.57 1.57 0 0 1 .01 0zM2 6.05a.15.15 0 0 0-.15.15v.3c0 .08.07.15.15.15h.9c.08 0 .15-.07.15-.15v-.3a.15.15 0 0 0-.15-.15H2zm7.8 0a.15.15 0 0 0-.15.15v.3c0 .08.07.15.15.15h.9c.08 0 .15-.07.15-.15v-.3a.15.15 0 0 0-.15-.15h-.9zm-6 2.48a.15.15 0 0 0-.1.05l-.64.63a.15.15 0 0 0 0 .21l.22.22a.15.15 0 0 0 .2 0L4.13 9a.15.15 0 0 0 0-.21l-.2-.21a.15.15 0 0 0-.11-.05zm5.1 0a.15.15 0 0 0-.11.05l-.21.2a.15.15 0 0 0 0 .22l.63.64a.15.15 0 0 0 .21 0l.22-.22a.15.15 0 0 0 0-.2L9 8.57a.15.15 0 0 0-.1-.05zM6.2 9.65a.15.15 0 0 0-.15.15v.9c0 .08.07.15.15.15h.3c.08 0 .15-.07.15-.15v-.9a.15.15 0 0 0-.15-.15h-.3z" fill="#ff7f2a"/></svg>

<?xml version="1.0" encoding="UTF-8" standalone="no"?>
<svg
   xmlns:dc="http://purl.org/dc/elements/1.1/"
   xmlns:cc="http://creativecommons.org/ns#"
   xmlns:rdf="http://www.w3.org/1999/02/22-rdf-syntax-ns#"
   xmlns:svg="http://www.w3.org/2000/svg"
   xmlns="http://www.w3.org/2000/svg"
   xmlns:sodipodi="http://sodipodi.sourceforge.net/DTD/sodipodi-0.dtd"
   xmlns:inkscape="http://www.inkscape.org/namespaces/inkscape"
   width="48"
   height="48"
   viewBox="0 0 12.7 12.7"
   version="1.1"
   id="svg4"
   sodipodi:docname="preferences-system-brightness-lock.svg"
   inkscape:version="0.92.4 (5da689c313, 2019-01-14)">
  <metadata
     id="metadata10">
    <rdf:RDF>
      <cc:Work
         rdf:about="">
        <dc:format>image/svg+xml</dc:format>
        <dc:type
           rdf:resource="http://purl.org/dc/dcmitype/StillImage" />
        <dc:title></dc:title>
      </cc:Work>
    </rdf:RDF>
  </metadata>
  <defs
     id="defs8" />
  <sodipodi:namedview
     pagecolor="#ffffff"
     bordercolor="#666666"
     borderopacity="1"
     objecttolerance="10"
     gridtolerance="10"
     guidetolerance="10"
     inkscape:pageopacity="0"
     inkscape:pageshadow="2"
     inkscape:window-width="1087"
     inkscape:window-height="480"
     id="namedview6"
     showgrid="false"
     inkscape:zoom="4.9166667"
     inkscape:cx="2.1355932"
     inkscape:cy="24"
     inkscape:window-x="0"
     inkscape:window-y="25"
     inkscape:window-maximized="0"
     inkscape:current-layer="svg4" />
  <path
     d="M 6.34,0.07 A 6.29,6.29 0 0 0 0.05,6.37 6.29,6.29 0 0 0 6.35,12.65 6.29,6.29 0 0 0 12.63,6.36 6.29,6.29 0 0 0 6.34,0.07 Z M 6.32,1 6.33,1.01 a 5.4,5.4 0 0 1 5.4,5.4 5.4,5.4 0 0 1 -5.4,5.41 A 5.4,5.4 0 0 1 0.92,6.42 5.4,5.4 0 0 1 6.32,1 Z M 6.2,1.85 A 0.15,0.15 0 0 0 6.05,2 v 0.9 c 0,0.08 0.07,0.15 0.15,0.15 H 6.5 C 6.58,3.05 6.65,2.98 6.65,2.9 V 2 A 0.15,0.15 0 0 0 6.5,1.85 Z M 3.38,3.02 A 0.15,0.15 0 0 0 3.28,3.06 L 3.06,3.28 a 0.15,0.15 0 0 0 0,0.2 L 3.7,4.12 a 0.15,0.15 0 0 0 0.21,0 l 0.21,-0.2 a 0.15,0.15 0 0 0 0,-0.22 L 3.49,3.06 A 0.15,0.15 0 0 0 3.39,3.02 Z m 5.94,0 A 0.15,0.15 0 0 0 9.22,3.06 L 8.58,3.7 a 0.15,0.15 0 0 0 0,0.21 l 0.2,0.21 A 0.15,0.15 0 0 0 9,4.12 L 9.64,3.49 a 0.15,0.15 0 0 0 0,-0.21 L 9.42,3.06 A 0.15,0.15 0 0 0 9.32,3.02 Z M 6.35,4.25 a 2.1,2.1 0 0 0 -0.01,0 2.1,2.1 0 0 0 -0.01,0 2.1,2.1 0 0 0 -0.61,0.1 2.1,2.1 0 0 0 -0.2,0.07 2.1,2.1 0 0 0 -0.01,0 A 2.1,2.1 0 0 0 5.34,4.52 2.1,2.1 0 0 0 5.29,4.54 2.1,2.1 0 0 0 4.84,4.89 2.1,2.1 0 0 0 4.8,4.94 2.1,2.1 0 0 0 4.7,5.05 2.1,2.1 0 0 0 4.68,5.08 2.1,2.1 0 0 0 4.58,5.22 2.1,2.1 0 0 0 4.56,5.26 2.1,2.1 0 0 0 4.47,5.41 2.1,2.1 0 0 0 4.47,5.42 2.1,2.1 0 0 0 4.39,5.6 2.1,2.1 0 0 0 4.37,5.66 2.1,2.1 0 0 0 4.33,5.8 2.1,2.1 0 0 0 4.31,5.88 2.1,2.1 0 0 0 4.28,6 a 2.1,2.1 0 0 0 0,0.08 2.1,2.1 0 0 0 -0.02,0.13 2.1,2.1 0 0 0 0,0.14 2.1,2.1 0 0 0 0.03,0.42 2.1,2.1 0 0 0 0.6,1.09 2.1,2.1 0 0 0 0.33,0.26 2.1,2.1 0 0 0 0.18,0.1 2.1,2.1 0 0 0 0.95,0.23 2.1,2.1 0 0 0 2.1,-2.1 2.1,2.1 0 0 0 -2.1,-2.1 z m 0,0.53 a 1.57,1.57 0 0 1 1.57,1.57 1.57,1.57 0 0 1 -1.57,1.57 1.57,1.57 0 0 1 -0.01,0 V 4.78 a 1.57,1.57 0 0 1 0.01,0 z M 2,6.05 A 0.15,0.15 0 0 0 1.85,6.2 V 6.5 C 1.85,6.58 1.92,6.65 2,6.65 H 2.9 C 2.98,6.65 3.05,6.58 3.05,6.5 V 6.2 A 0.15,0.15 0 0 0 2.9,6.05 Z m 7.8,0 A 0.15,0.15 0 0 0 9.65,6.2 v 0.3 c 0,0.08 0.07,0.15 0.15,0.15 h 0.9 c 0.08,0 0.15,-0.07 0.15,-0.15 V 6.2 A 0.15,0.15 0 0 0 10.7,6.05 Z m -6,2.48 A 0.15,0.15 0 0 0 3.7,8.58 L 3.06,9.21 a 0.15,0.15 0 0 0 0,0.21 l 0.22,0.22 a 0.15,0.15 0 0 0 0.2,0 L 4.13,9 a 0.15,0.15 0 0 0 0,-0.21 L 3.93,8.58 A 0.15,0.15 0 0 0 3.82,8.53 Z m 5.1,0 A 0.15,0.15 0 0 0 8.79,8.58 l -0.21,0.2 a 0.15,0.15 0 0 0 0,0.22 l 0.63,0.64 a 0.15,0.15 0 0 0 0.21,0 L 9.64,9.42 a 0.15,0.15 0 0 0 0,-0.2 L 9,8.57 A 0.15,0.15 0 0 0 8.9,8.52 Z M 6.2,9.65 A 0.15,0.15 0 0 0 6.05,9.8 v 0.9 c 0,0.08 0.07,0.15 0.15,0.15 h 0.3 c 0.08,0 0.15,-0.07 0.15,-0.15 V 9.8 A 0.15,0.15 0 0 0 6.5,9.65 Z"
     id="path2"
     inkscape:connector-curvature="0"
     style="fill:#ff7f2a" />
</svg>
